X: 1123
T: a Blast of Wind   #2
R: slip-jig
%S: s:w b:10(5+5)
B: O'Neill's 1850 #1123
Z: Michael D. Long, 1/9/99
Z: Michael Hogan
M: 9/8
L: 1/8
K: D
"^A"|: {A}d3 dAG FED |{A}d2d dAF G2E | ABc dAG FGA | =cBc E2F G2E "^B":: d2g fdf ece |
| d2g fdf g2e |[1 d2g fdf ece | =cBc E2F G2E :|[2 afd gec d2B | =cBc E2F G2E |]
